X:1
T: The Grey Plover
C:
R:Reel
Q: 232
K:G
M:4/4
L:1/8
|:G3B d2 BA|Bc BA Bc BA|G3B d2 BG|FA DA FA DA|
G2 GB d2 Bd|eB Bd g2 fg|ef de Bd df|e2 dB BG G2|
dg ((3ggg) a2 ge|d2 BA GB B2|dg ((3ggg) a2 ge|d2 BG FA A2|
dg gg a2 ge|dB Bd g2 fg|ef de Bd df|e2 dB BG G2:|
